!!!!SEGMENT: pl-cz--iii-47--011_bulakowski-stefan--msza-as-agnus-dei.krn
!!!cenid: 18xx:702
!!!COM: Bułakowski, Stefan
!!!COM-rismID: pe30085804
!!!CDT: 1784-1852
!!!CNT:
!!!OPR: Msza As
!!!OTL: Agnus Dei
!!!OMV: 011
!!!PDT:
!!!AGN: Sacred; Mass
!!!SMS-siglum: PL-CZ
!!!SMS-shelfmark: III-47
!!!SMS-shelfwork: 001-011 M
!!!SMS-variant:
!!!SMS-altvar:
!!!NIFC-rismSourceID: 300000053
!!!NIFC-rismChildID: 300000053
!!!NIFC-islandoraID: pl-cz:38687
!!!URL-pdf-islandora: https://repozytorium.nifc.pl/islandora/object/pl-cz%3A38687/datastream/PDF/view
!!!URL-scan: https://polish.musicsources.pl/pl/lokalizacje/galeria/rekopisy/6939/1 @EN{Scan on Polish Music Sources Website} @PL{Skany w portalu Dziedzictwo Muzyki Polskiej w otwartym dostępie}
!!!ONB-nifc: UWAGA: części Mszy: Kyrie, Gloria, Justus ut palma, Credo, Et incarnatus, Et resurrexit, Veritas mea, Sanctus, Pleni, Benedictus, Agnus Dei, Dona nobis
!!!AIN: 2 clars 2 cor 1 empty 2 fagot 2 tenor 1 tromt
!!!key:
**kern	**text	**kern	**text	**kern	**text	**kern	**dynam	**kern	**dynam	**kern	**dynam	**kern	**dynam	**kern	**dynam	**kern	**dynam	**kern	**dynam
*part10	*part10	*part9	*part9	*part8	*part8	*part7	*part7	*part6	*part6	*part5	*part5	*part4	*part4	*part3	*part3	*part2	*part2	*part1	*part1
*staff10	*staff10	*staff9	*staff9	*staff8	*staff8	*staff7	*	*staff6	*	*staff5	*	*staff4	*	*staff3	*	*staff2	*	*staff1	*
*Iempty	*	*Itenor	*	*Itenor	*	*Itromt	*	*Icor	*	*Icor	*	*Ifagot	*	*Ifagot	*	*Iclars	*	*Iclars	*
*I"Baſso	*	*I"Tenore 2do	*	*I"Tenore 1mo	*	*I"Trombone	*	*I"Corno 2do in As	*	*I"Corno 1mo in As	*	*I"Fagotto 2do	*	*I"Fagotto 1mo	*	*I"Clarinetto 2do in B♭	*	*I"Clarinetto 1mo in B	*
*I'B	*	*I'T II	*	*I'T I	*	*I'Trb	*	*I'cor II	*	*I'cor I	*	*I'fag II	*	*I'fag I	*	*I'cl II	*	*I'cl I	*
*group3	*	*group3	*	*group3	*	*group2	*	*group2	*	*group2	*	*group1	*	*group1	*	*group1	*	*group1	*
*clefF4	*	*clefC4	*	*clefC4	*	*clefF4	*	*clefG2	*	*clefG2	*	*clefF4	*	*clefF4	*	*clefG2	*	*clefG2	*
*	*	*	*	*	*	*	*	*ITrd-2c-3	*	*ITrd-2c-3	*	*	*	*	*	*ITrd1c2	*	*ITrd1c2	*
*k[b-e-a-d-]	*	*k[b-e-a-d-]	*	*k[b-e-a-d-]	*	*k[b-e-a-d-]	*	*k[b-e-a-d-]	*	*k[b-e-a-d-]	*	*k[b-e-a-d-]	*	*k[b-e-a-d-]	*	*k[b-e-a-d-]	*	*k[b-e-a-d-]	*
*A-:	*	*A-:	*	*A-:	*	*A-:	*	*A-:	*	*A-:	*	*A-:	*	*A-:	*	*A-:	*	*A-:	*
*M4/4	*	*M4/4	*	*M4/4	*	*M4/4	*	*M4/4	*	*M4/4	*	*M4/4	*	*M4/4	*	*M4/4	*	*M4/4	*
*met(c)	*	*met(c)	*	*met(c)	*	*met(c)	*	*met(c)	*	*met(c)	*	*met(c)	*	*met(c)	*	*met(c)	*	*met(c)	*
=1	=1	=1	=1	=1	=1	=1	=1	=1	=1	=1	=1	=1	=1	=1	=1	=1	=1	=1	=1
*2\right	*	*2\right	*	*2\right	*	*2\right	*	*2\right	*	*2\right	*	*2\right	*	*2\right	*	*2\right	*	*2\right	*
!LO:TX:a:t=P:problem= trzy bemole przy kluczu	!	!LO:TX:a:t=Agnus	!	!LO:TX:a:t=Agnus	!	!LO:TX:a:t=Agnus	!LO:DY:b:t=p.	!LO:TX:a:t=Agnus	!	!LO:TX:a:t=in Es.	!	!LO:TX:a:t=Agnus	!	!LO:TX:a:t=Agnus	!	!LO:TX:a:t=Agnus	!LO:DY:b:t=p.	!LO:TX:a:t=Agnus.	!
!LO:TX:a:t=Andante	!	!LO:TX:a:t=Andante.	!	!LO:TX:a:t=Andante	!	!LO:TX:a:t=Andante	!	!LO:TX:a:t=Andante in Es.	!LO:DY:b	!LO:TX:a:t=Andante	!LO:DY:b	!LO:TX:a:t=Andante.	!	!LO:TX:a:t=Andante	!	!LO:TX:a:t=Andante.	!	!LO:TX:a:t=Andante	!
2AA-/	A-	2E-/	A-	2c\	A-	2AA-/	p	2cc\	p	2ee-\	p	2AA-/	.	2A-\	.	2e-/	p	2cc\	.
[4.AA-/	-gnus	(4.F/	-gnus	(4.d-\	-gnus	2r	.	4.dd-X\	.	4.ff\	.	4.AA-/	.	4.A-\	.	4.f/	.	4.dd-\	.
8AA-/]	.	8E-/)	.	8c\)	.	.	.	8cc\	.	8ee-\	.	8AA-/	.	8A-\	.	8e-/	.	8cc\	.
=2	=2	=2	=2	=2	=2	=2	=2	=2	=2	=2	=2	=2	=2	=2	=2	=2	=2	=2	=2
[4.AA-/	De-	(4.E-/	De-	(4.c\	De-	2AA-/	.	4.cc/	.	4.ee-\	.	4.AA-/	.	4.A-\	.	4.e-/	.	4.cc\	.
8AA-/]	.	8D-/)	.	8B-\)	.	.	.	8b-/	.	8dd-X\	.	8AA-/	.	8A-\	.	8d-/	.	8b-\	.
4AA-/	-i	4C/	-i	4A-\	-i	2r	.	4cc/	.	4cc\	.	4AA-/	.	4A-\	.	4c/	.	4a-\	.
4G\	qui	4F/	qui	4B-\	qui	.	.	4r	.	4ee-\	.	4G\	.	4G\	.	4e-/	.	4b-\	.
=3	=3	=3	=3	=3	=3	=3	=3	=3	=3	=3	=3	=3	=3	=3	=3	=3	=3	=3	=3
!	!	!	!	!	!	!LO:TX:a:t=1.	!	!LO:TX:a:t=1.	!	!	!	!	!	!	!	!	!	!	!
(4A-\	to-	(4A-\	to-	(4c\	to-	1r	.	1r	.	4cc\	.	4A-\	.	4A-\	.	4a-\	.	4cc\	.
4B-\)	.	4A-\)	.	4d-\)	.	.	.	.	.	4dd-X\	.	4B-\	.	4B-\	.	4a-\	.	4dd-\	.
4c\	-lis	4A-\	-lis	4e-\	-lis	.	.	.	.	4ee-\	.	4c\	.	4c\	.	4a-\	.	4ee-\	.
4d-\	pe-	4A-\	pe-	4f\	pe-	.	.	.	.	4ff\	.	4d-\	.	4d-\	.	4a-\	.	4ff\	.
!LO:LB:g=original	!	!LO:LB:g=original	!	!LO:LB:g=original	!	!	!	!	!	!	!	!	!	!	!	!	!	!	!
=4	=4	=4	=4	=4	=4	=4	=4	=4	=4	=4	=4	=4	=4	=4	=4	=4	=4	=4	=4
[4.E-\	-ca-	(4.G\	-ca-	(4.B-\	-ca-	2.E-\	.	2.ee-\	.	2.gg\	.	2.E-\	.	2.E-\	.	4.g\	.	4.b-\	.
8E-\]	.	16B-\LL	.	16d-\LL	.	.	.	.	.	.	.	.	.	.	.	16b-\LL	.	16dd-\LL	.
.	.	16A-\JJ)	.	16c\JJ)	.	.	.	.	.	.	.	.	.	.	.	16a-\JJ	.	16cc\JJ	.
4E-\	-ta	4G/	-ta	4B-\	-ta	.	.	.	.	.	.	.	.	.	.	2g\	.	4b-\	.
4E-\	pe-	4G/	pe-	4Bn\	pe-	4r	.	4r	.	4r	.	4r	.	4r	.	.	.	4bX\	.
!	!	!	!	!	!	!	!	!	!	!LO:LB:g=original	!	!LO:LB:g=original	!	!LO:LB:g=original	!	!LO:LB:g=original	!	!LO:LB:g=original	!
=5	=5	=5	=5	=5	=5	=5	=5	=5	=5	=5	=5	=5	=5	=5	=5	=5	=5	=5	=5
!	!	!	!	!	!	!LO:TX:a:t=1.	!	!	!	!	!	!	!	!	!	!	!	!	!
4A-\	-ca-	4E-/	-ca-	4c\	-ca-	1r	.	4cc/	.	4ee-\	.	4A-\	.	4c\	.	4a-\	.	4cc\	.
8A-\	-ta	8E-/	-ta	8c\	-ta	.	.	8cc/L	.	8ee-\L	.	8.A-\L	.	8.c\L	.	8a-\L	.	8cc\L	.
8A-\	pe-	8E-/	pe-	8c\	pe-	.	.	8cc/J	.	8ee-\J	.	.	.	.	.	8a-\J	.	8cc\J	.
.	.	.	.	.	.	.	.	.	.	.	.	16A-\Jk	.	16c\Jk	.	.	.	.	.
4G\	-ca-	4En/	-ca-	4.c\	-ca-	.	.	2cc/	.	2eeX\	.	4.A-\	.	4.c\	.	4.b-\	.	4.cc\	.
4G\	-ta	4E-y/	-ta	.	.	.	.	.	.	.	.	.	.	.	.	.	.	.	.
.	.	.	.	8B-\	-ta	.	.	.	.	.	.	8G\	.	8B-\	.	8b-\	.	8eeX\	.
!	!	!	!	!	!	!	!	!LO:LB:g=original	!	!	!	!	!	!	!	!	!	!	!
=6	=6	=6	=6	=6	=6	=6	=6	=6	=6	=6	=6	=6	=6	=6	=6	=6	=6	=6	=6
(4F\	mun-	(4F/	mun-	(4A-\	mun-	2r	.	2cc/	.	2ff\	.	4F\	.	4A-\	.	4a-\	.	4ff\	.
4G\)	.	4G/)	.	4G\)	.	.	.	.	.	.	.	4C\	.	4G\	.	4g\	.	4gg\	.
4A-\	-di	4A-/	-di	4F\	-di	4r	.	2r	.	2r	.	4F\	.	4F\	.	4f/	.	4aa-\	.
8.AA-/	mi-	8.F/	mi-	8.c\	mi-	4AA-/	.	.	.	.	.	4A-\	.	4c\	.	8.a-/L	.	8.cc\L	.
!	!	!	!	!	!	!	!	!	!	!	!	!	!	!	!	!	!	!LO:TX:a:t=c	!
16AA-/	-se-	16F/	-se-	16B-\	-se-	.	.	.	.	.	.	.	.	.	.	16g/Jk	.	16b-\Jk	.
!LO:LB:g=original	!	!	!	!LO:LB:g=original	!	!	!	!	!	!	!	!	!	!	!	!	!	!	!
=7	=7	=7	=7	=7	=7	=7	=7	=7	=7	=7	=7	=7	=7	=7	=7	=7	=7	=7	=7
4B-\	-re-	4G/	-re-	(4B-\	-re-	4BB-/	.	2ee-\	.	2gg\	.	2B-\	.	2B-\	.	2g/	.	4b-\	.
8.B-\	-re-	8.G/	.	8.e-\)	.	4r	.	.	.	.	.	.	.	.	.	.	.	8.ee-\L	.
16B-\	-re	16G/	-re	16G/	-re	.	.	.	.	.	.	.	.	.	.	.	.	16g\Jk	.
[4BB-/	no-	[4Dn/	no-	(4B-\	no-	4BB-/	.	2b-/	.	2ff\	.	2BB-/	.	2A-\	.	2f/	.	4b-\	.
4BB-/]	.	4D/]	.	8.A-\L	.	4r	.	.	.	.	.	.	.	.	.	.	.	8.a-\L	.
.	.	.	.	16F\Jk)	.	.	.	.	.	.	.	.	.	.	.	.	.	16f\Jk	.
!	!	!LO:LB:g=original	!	!	!	!LO:LB:g=original	!	!	!	!	!	!	!	!	!	!	!	!	!
=8	=8	=8	=8	=8	=8	=8	=8	=8	=8	=8	=8	=8	=8	=8	=8	=8	=8	=8	=8
4E-\	-bis	4E-/	-bis	4E-/	-bis	4E-\	.	4g/	.	4ee-\	.	4E-\	.	4G\	.	4e-/	.	4e-/	.
4r	.	4r	.	4r	.	4r	.	4r	.	4r	.	4r	.	4r	.	4r	.	4r	.
2r	.	2r	.	2r	.	2r	.	2r	.	2r	.	2r	.	2r	.	8e-/L	.	8ee-\L	.
.	.	.	.	.	.	.	.	.	.	.	.	.	.	.	.	8f/	.	8ff\	.
.	.	.	.	.	.	.	.	.	.	.	.	.	.	.	.	8g/	.	8gg\	.
.	.	.	.	.	.	.	.	.	.	.	.	.	.	.	.	8a-/J	.	8aa-\J	.
=9	=9	=9	=9	=9	=9	=9	=9	=9	=9	=9	=9	=9	=9	=9	=9	=9	=9	=9	=9
!	!	!	!	!	!	!LO:TX:a:t=2	!	!	!	!	!	!	!	!	!	!	!	!	!
4G\	A-	4E-/	A-	4B-\	A-	0r	.	2b-/	.	[1ee-	.	2G\	.	2G\	.	[1ee-	.	2bb-\	.
4G\	-gnus	4E-/	-gnus	4B-\	-gnus	.	.	.	.	.	.	.	.	.	.	.	.	.	.
4A-\	De-	4E-/	de-	4c\	De-	.	.	4cc/	.	.	.	4A-\	.	4A-\	.	.	.	4ccc\	.
8C/	-i	8E-/	-i	8A-\	-i	.	.	4r	.	.	.	8C/L	.	8c\L	.	.	.	8aa-\L	.
8C/	qui	8E-/	qui	8A-\	qui	.	.	.	.	.	.	8C/J	.	8c\J	.	.	.	8aa-\J	.
!	!	!	!	!	!	!	!	!	!	!	!	!	!	!	!	!	!	!LO:LB:g=original	!
=10	=10	=10	=10	=10	=10	=10	=10	=10	=10	=10	=10	=10	=10	=10	=10	=10	=10	=10	=10
(4.BB-/	tol-	4.E-/	to-	(4.G\	to-	.	.	4.dd-X\	.	1ee-]	.	4.BB-/	.	4.B-\	.	1ee-]	.	4.gg\	.
8C/)	.	8E-/	.	8A-\)	.	.	.	8cc\	.	.	.	8C/	.	8c\	.	.	.	8aa-\	.
4D-\	-lis	4E-/	-lis	4B-\	-lis	.	.	4b-/	.	.	.	4D-\	.	4d-\	.	.	.	4bb-\	.
4E-\	pe-	4E-/	pe-	4E-/	pe-	.	.	4dd-/	.	.	.	4E-\	.	4e-\	.	.	.	4ee-\	.
!LO:LB:g=original	!	!	!	!LO:LB:g=original	!	!	!	!	!	!	!	!LO:LB:g=original	!	!LO:LB:g=original	!	!LO:LB:g=original	!	!	!
=11	=11	=11	=11	=11	=11	=11	=11	=11	=11	=11	=11	=11	=11	=11	=11	=11	=11	=11	=11
4C\	-ca-	4E-/	-ca-	4A-\	-ca-	2r	.	4cc/	.	4ee-\	.	4C/	.	4c\	.	4e-/	.	4a-\	.
8G\	-ta	8E-/	-ta	8B-\	-ta	.	.	8.b-/L	.	8.ee-\L	.	8G\L	.	8G\L	.	8.e-/L	.	8b-\L	.
8G\	pe-	8E-/	pe-	8B-\	pe-	.	.	.	.	.	.	8G\J	.	8G\J	.	.	.	8b-\J	.
.	.	.	.	.	.	.	.	16b-/Jk	.	16ee-\Jk	.	.	.	.	.	16e-/Jk	.	.	.
!	!	!	!	!LO:TX:a:t=P:problem=obiegnik górny	!	!	!	!	!	!	!	!	!	!	!	!	!	!	!
(4A-\	-ca-	4E-/	-ca-	(4c\	-ca-	4r	.	4cc/	.	4ee-\	.	4A-\	.	4A-\	.	4e-/	.	4cc\	.
8.D-\)	.	[8.F/	-ta	8.e-\)	.	4D-X\	.	4dd-X/	.	4ff\	.	8.D-X\L	.	8.F\L	.	8.e-/L	.	8.ee-\L	.
16D-\	-ta	16F/]	.	16d-\	-ta	.	.	.	.	.	.	16D-\Jk	.	16F\Jk	.	16e-/Jk	.	16dd-\Jk	.
!	!	!LO:LB:g=original	!	!	!	!	!	!LO:LB:g=original	!	!LO:LB:g=original	!	!	!	!	!	!	!	!	!
=12	=12	=12	=12	=12	=12	=12	=12	=12	=12	=12	=12	=12	=12	=12	=12	=12	=12	=12	=12
2E-\	mun-	2A-\	mun-	2c\	mun-	2E-\	.	2b-/	.	2ee-\	.	2E-\	.	2E-\	.	2a-\	.	2cc\	.
4E-\	-di	4G\	-di	4B-\	-di	4E-\	.	4b-/	.	4ee-\	.	4E-\	.	4E-\	.	4g\	.	4b-\	.
8E-\	mi-	8E-/	mi-	8E-/	mi-	4r	.	4r	.	4r	.	8E-\L	.	8.E-\L	.	8.e-/L	.	8.e-/L	.
8E-\	-se-	8E-/	-s-	8E-/	-se-	.	.	.	.	.	.	8E-\J	.	.	.	.	.	.	.
.	.	.	.	.	.	.	.	.	.	.	.	.	.	16E-\Jk	.	16e-/Jk	.	16e-/Jk	.
=13	=13	=13	=13	=13	=13	=13	=13	=13	=13	=13	=13	=13	=13	=13	=13	=13	=13	=13	=13
!	!	!	!	!	!	!LO:TX:a:t=1.	!	!LO:TX:a:t=1.	!	!LO:TX:a:t=1.	!	!	!	!	!	!	!	!	!
(8AA-/L	-re-	(8A-\L	-re-	(8A-\L	-re-	1r	.	1r	.	1r	.	8AA-/L	.	8A-\L	.	8a-\L	.	8a-\L	.
8BB-/	.	8B-\	.	8B-\	.	.	.	.	.	.	.	8BB-/	.	8B-\	.	8b-\	.	8b-\	.
8C/	.	8c\	.	8c\	.	.	.	.	.	.	.	8C/	.	8c\	.	8cc\	.	8cc\	.
8D-/J)	.	8d-\J)	.	8d-\J)	.	.	.	.	.	.	.	8D-/J	.	8d-\J	.	8dd-\J	.	8dd-\J	.
4E-\	-re	4e-\	-re	4e-\	-re	.	.	.	.	.	.	4E-\	.	4e-\	.	4ee-\	.	4ee-\	.
8C/	mi-	8c\	mi-	8c\	mi-	.	.	.	.	.	.	8C/L	.	8c\L	.	8cc\L	.	8cc\L	.
8AA-/	-se-	8A-\	-se-	8A-\	-se-	.	.	.	.	.	.	8AA-/J	.	8A-\J	.	8a\J	.	8a\J	.
!LO:LB:g=original	!	!	!	!LO:LB:g=original	!	!	!	!	!	!	!	!	!	!	!	!	!	!LO:LB:g=original	!
=14	=14	=14	=14	=14	=14	=14	=14	=14	=14	=14	=14	=14	=14	=14	=14	=14	=14	=14	=14
2D-\	-re-	2F/	-re-	(8F\L	-re-	2r	.	2.dd-X\	.	2.ff\	.	2D-\	.	2.A-\	.	2f/	.	8f\L	.
.	.	.	.	8An\	.	.	.	.	.	.	.	.	.	.	.	.	.	8a\	.
.	.	.	.	8B-\	.	.	.	.	.	.	.	.	.	.	.	.	.	8b-\	.
.	.	.	.	8c\J)	.	.	.	.	.	.	.	.	.	.	.	.	.	8cc\J	.
4BB-/	-re	4F/	-re	4d-\	-re	4BB-/	.	.	.	.	.	4BB-/	.	.	.	4f/	.	4dd-\	.
8C/	mi-	8F/	mi-	8c\	mi-	8C/L	.	4r	.	4r	.	8C/L	.	4r	.	8f/L	.	8cc\L	.
8D-/	-se-	8F/	-se-	8B-\	-se-	8D-/J	.	.	.	.	.	8D-/J	.	.	.	8f/J	.	8b-\J	.
=15	=15	=15	=15	=15	=15	=15	=15	=15	=15	=15	=15	=15	=15	=15	=15	=15	=15	=15	=15
4E-\	-re-	4A-\	-re-	4c\	-re-	2E-\	.	2cc\	.	2ee-\	.	2E-\	.	2E-\	.	4a-\	.	4cc\	.
4E-\	-re	(8G\L	-re	(8B-\L	-re	.	.	.	.	.	.	.	.	.	.	8g\L	.	8b-\L	.
.	.	8A-\J)	.	8c\J)	.	.	.	.	.	.	.	.	.	.	.	8a-\J	.	8cc\J	.
2E-\	no-	2E-/	no-	(8e-\L	no-	2E-\	.	2dd-X\	.	2gg\	.	2EE-/	.	2E-\	.	4e-/	.	8ee-\L	.
.	.	.	.	8d-\	.	.	.	.	.	.	.	.	.	.	.	.	.	8dd-\	.
.	.	.	.	8F\	.	.	.	.	.	.	.	.	.	.	.	4d-X/	.	8f\	.
.	.	.	.	8G\J)	.	.	.	.	.	.	.	.	.	.	.	.	.	8g\J	.
!	!	!LO:LB:g=original	!	!	!	!LO:LB:g=original	!	!	!	!	!	!LO:LB:g=original	!	!	!	!LO:LB:g=original	!	!	!
=16	=16	=16	=16	=16	=16	=16	=16	=16	=16	=16	=16	=16	=16	=16	=16	=16	=16	=16	=16
*	*	*	*	*	*	*	*	*	*	*	*	*	*	*	*	*tremolo	*	*	*
!	!	!	!	!	!	!	!LO:DY:b:t=p.	!	!LO:DY:b:t=p.	!	!LO:DY:b	!	!LO:DY:b:t=p.	!	!LO:DY:b:t=p.	!	!LO:DY:b:t=p.	!LO:TX:a:t=Solo.	!
4AA-/	-bis	4C/	-bis	4A-\	-bis	4AA-/	p	8cc\L	p	8ee-\L	p	4AA-/	p	8A-\L	p	8c/L	p	4a-\	.
.	.	.	.	.	.	.	.	8cc\	.	8ee-\	.	.	.	8A-\	.	8e-/	.	.	.
4r	.	4r	.	4r	.	4r	.	8cc\	.	8ee-\	.	4r	.	8A-\	.	8c/	.	8r	.
.	.	.	.	.	.	.	.	8cc\J	.	8ee-\J	.	.	.	8A-\J	.	8e-/J	.	(8ee-\	.
2r	.	2r	.	2r	.	4AA-/	.	8cc\L	.	8ee-\L	.	4AA-/	.	8A-\L	.	8c/L	.	8cc\L)	.
.	.	.	.	.	.	.	.	8cc\	.	8ee-\	.	.	.	8A-\	.	8e-/	.	(8aa-\	.
.	.	.	.	.	.	4r	.	8cc\	.	8ee-\	.	4r	.	8A-\	.	8c/	.	8ee-\)	.
.	.	.	.	.	.	.	.	8cc\J	.	8ee-\J	.	.	.	8A-\J	.	8e-/J	.	(8ccc\J	.
!	!	!	!	!	!	!	!	!	!	!	!	!	!	!LO:LB:g=original	!	!	!	!	!
=17	=17	=17	=17	=17	=17	=17	=17	=17	=17	=17	=17	=17	=17	=17	=17	=17	=17	=17	=17
!LO:TX:a:t=7	!	!LO:TX:a:t=7	!	!LO:TX:a:t=7	!	!	!	!	!	!	!	!	!	!	!	!	!	!	!
00r	.	00r	.	00r	.	4E-\	.	8b-/L	.	8ee-\L	.	4E-\	.	8G\L	.	8d-X/L	.	8ddd-\L)	.
.	.	.	.	.	.	.	.	8b-/	.	8ee-\	.	.	.	8G\	.	8e-/	.	8bb-'\	.
.	.	.	.	.	.	4r	.	8b-/	.	8ee-\	.	4r	.	8G\	.	8d-/	.	8gg'\	.
.	.	.	.	.	.	.	.	8b-/J	.	8ee-\J	.	.	.	8G\J	.	8e-/J	.	8ee-'\J	.
.	.	.	.	.	.	4E-\	.	8b-/L	.	8ee-\L	.	4E-\	.	8G\L	.	8d-/L	.	8dd-'\L	.
.	.	.	.	.	.	.	.	8b-/	.	8ee-\	.	.	.	8G\	.	8e-/	.	8b-'\	.
.	.	.	.	.	.	4r	.	8b-/	.	8ee-\	.	4r	.	8G\	.	8d-/	.	8.ff\	.
.	.	.	.	.	.	.	.	8b-/J	.	8ee-\J	.	.	.	8G\J	.	8e-/J	.	.	.
.	.	.	.	.	.	.	.	.	.	.	.	.	.	.	.	.	.	16ee-\Jk	.
!	!	!	!	!	!	!	!	!LO:LB:g=original	!	!LO:LB:g=original	!	!	!	!	!	!	!	!LO:LB:g=original	!
=18	=18	=18	=18	=18	=18	=18	=18	=18	=18	=18	=18	=18	=18	=18	=18	=18	=18	=18	=18
.	.	.	.	.	.	4AA-/	.	8cc/L	.	8ee-\L	.	4AA-/	.	8A-\L	.	8c/L	.	4cc\	.
.	.	.	.	.	.	.	.	8cc/	.	8ee-\	.	.	.	8A-\	.	8e-/	.	.	.
.	.	.	.	.	.	4r	.	8cc/	.	8ee-\	.	4r	.	8A-\	.	8c/	.	16r	.
.	.	.	.	.	.	.	.	.	.	.	.	.	.	.	.	.	.	(16ee-\LL	.
.	.	.	.	.	.	.	.	8cc/J	.	8ee-\J	.	.	.	8A-\J	.	8e-/J	.	16dd\)	.
.	.	.	.	.	.	.	.	.	.	.	.	.	.	.	.	.	.	(16ee-\JJ	.
.	.	.	.	.	.	4AA-/	.	8cc/L	.	8ee-\L	.	4AA-/	.	8A-\L	.	8c/L	.	16cc\LL)	.
.	.	.	.	.	.	.	.	.	.	.	.	.	.	.	.	.	.	(16aa-\	.
.	.	.	.	.	.	.	.	8cc/	.	8ee-\	.	.	.	8A-\	.	8e-/	.	16gg\)	.
.	.	.	.	.	.	.	.	.	.	.	.	.	.	.	.	.	.	(16aa-\JJ	.
.	.	.	.	.	.	4r	.	8cc/	.	8ee-\	.	4r	.	8A-\	.	8c/	.	16ee-\LL)	.
.	.	.	.	.	.	.	.	.	.	.	.	.	.	.	.	.	.	(16ccc\	.
.	.	.	.	.	.	.	.	8cc/J	.	8ee-\J	.	.	.	8A-\J	.	8e-/J	.	16bb-\)	.
.	.	.	.	.	.	.	.	.	.	.	.	.	.	.	.	.	.	(16ccc\JJ	.
=19	=19	=19	=19	=19	=19	=19	=19	=19	=19	=19	=19	=19	=19	=19	=19	=19	=19	=19	=19
.	.	.	.	.	.	4E-\	.	8b-/L	.	8ee-\L	.	4E-\	.	8G\L	.	8d-/L	.	16ddd-\LL)	.
.	.	.	.	.	.	.	.	.	.	.	.	.	.	.	.	.	.	16ccc'\	.
.	.	.	.	.	.	.	.	8b-/	.	8ee-\	.	.	.	8G\	.	8e-/	.	16ddd-'\	.
.	.	.	.	.	.	.	.	.	.	.	.	.	.	.	.	.	.	16bb-'\JJ	.
.	.	.	.	.	.	4r	.	8b-/	.	8ee-\	.	4r	.	8G\	.	8d-/	.	16gg\LL	.
.	.	.	.	.	.	.	.	.	.	.	.	.	.	.	.	.	.	16ff\	.
.	.	.	.	.	.	.	.	8b-/J	.	8ee-\J	.	.	.	8G\J	.	8e-/J	.	16gg\	.
.	.	.	.	.	.	.	.	.	.	.	.	.	.	.	.	.	.	16ee-\JJ	.
.	.	.	.	.	.	4E-\	.	8b-/L	.	8ee-\L	.	4E-\	.	8G\L	.	8d-/L	.	16dd-\LL	.
.	.	.	.	.	.	.	.	.	.	.	.	.	.	.	.	.	.	16cc\	.
.	.	.	.	.	.	.	.	8b-/	.	8ee-\	.	.	.	8G\	.	8e-/	.	16dd-\	.
.	.	.	.	.	.	.	.	.	.	.	.	.	.	.	.	.	.	16b-\JJ	.
.	.	.	.	.	.	4r	.	8b-/	.	8ee-\	.	4r	.	8G\	.	8d-/	.	8.ff^\L	.
.	.	.	.	.	.	.	.	8b-/J	.	8ee-\J	.	.	.	8G\J	.	8e-/J	.	.	.
.	.	.	.	.	.	.	.	.	.	.	.	.	.	.	.	.	.	16ee-\Jk	.
=20	=20	=20	=20	=20	=20	=20	=20	=20	=20	=20	=20	=20	=20	=20	=20	=20	=20	=20	=20
.	.	.	.	.	.	4C/	.	8cc/L	.	8ee-\L	.	4C/	.	8A-\L	.	8d-/L	.	8cc'\L	.
.	.	.	.	.	.	.	.	8cc/	.	8ee-\	.	.	.	8A-\	.	8e-/	.	8ee-'\J	.
.	.	.	.	.	.	4r	.	8cc/	.	8ee-\	.	4r	.	8A-\	.	8d-/	.	4.aa-\	.
.	.	.	.	.	.	.	.	8cc/J	.	8ee-\J	.	.	.	8A-\J	.	8e-/J	.	.	.
.	.	.	.	.	.	4C/	.	8cc/L	.	8ee-\L	.	4C/	.	8A-\L	.	8d-/L	.	.	.
.	.	.	.	.	.	.	.	8cc/	.	8ee-\	.	.	.	8A-\	.	8e-/	.	16ccc'\LL	.
.	.	.	.	.	.	.	.	.	.	.	.	.	.	.	.	.	.	16bb-'\JJ	.
.	.	.	.	.	.	4r	.	8cc/	.	8ee-\	.	4r	.	8A-\	.	8d-/	.	16aa-'\LL	.
.	.	.	.	.	.	.	.	.	.	.	.	.	.	.	.	.	.	16gg'\	.
.	.	.	.	.	.	.	.	8cc/J	.	8ee-\J	.	.	.	8A-\J	.	8e-/J	.	16ff'\	.
.	.	.	.	.	.	.	.	.	.	.	.	.	.	.	.	.	.	16eeX'\JJ	.
!	!	!	!	!	!	!	!	!	!	!	!	!	!	!	!	!LO:LB:g=original	!	!LO:LB:g=original	!
=21	=21	=21	=21	=21	=21	=21	=21	=21	=21	=21	=21	=21	=21	=21	=21	=21	=21	=21	=21
0r	.	0r	.	0r	.	4D-\	.	8dd-X\L	.	8ff\L	.	4D-\	.	8A-\L	.	8d-/L	.	8ff'\L	.
.	.	.	.	.	.	.	.	8dd-\	.	8ff\	.	.	.	8A-\	.	8f/	.	8bb-'\J	.
.	.	.	.	.	.	4r	.	8dd-\	.	8ff\	.	4r	.	8A-\	.	8d-/	.	4.ddd-\	.
.	.	.	.	.	.	.	.	8dd-\J	.	8ff\J	.	.	.	8A-\J	.	8f/J	.	.	.
!	!	!	!	!	!	!	!	!	!	!	!	!LO:N:vis=4.	!	!	!	!	!	!	!
.	.	.	.	.	.	4D-\	.	8dd-\L	.	8ff\L	.	4D-\	.	8A-\L	.	8d-/L	.	.	.
.	.	.	.	.	.	.	.	8dd-\	.	8ff\	.	.	.	8A-\	.	8f/	.	16bb-\LL	.
.	.	.	.	.	.	.	.	.	.	.	.	.	.	.	.	.	.	16ccc\JJ	.
.	.	.	.	.	.	4r	.	8dd-\	.	8ff\	.	4r	.	8A-\	.	8d-/	.	8ddd-\L	.
.	.	.	.	.	.	.	.	8dd-\J	.	8ff\J	.	.	.	8A-\J	.	8f/J	.	16ccc\L	.
.	.	.	.	.	.	.	.	.	.	.	.	.	.	.	.	.	.	16bb-\JJ	.
*	*	*	*	*	*	*	*	*	*	*	*	*	*	*	*	*Xtremolo	*	*	*
!	!	!	!	!	!	!LO:LB:g=original	!	!LO:LB:g=original	!	!LO:LB:g=original	!	!LO:LB:g=original	!	!LO:LB:g=original	!	!	!	!	!
=22	=22	=22	=22	=22	=22	=22	=22	=22	=22	=22	=22	=22	=22	=22	=22	=22	=22	=22	=22
.	.	.	.	.	.	8C\	.	8cc/	.	8ee-\	.	8C\	.	8A-\	.	8e-/	.	(8ccc^\L	.
.	.	.	.	.	.	8r	.	8r	.	8r	.	8r	.	8r	.	8r	.	16.bb-\L)	.
.	.	.	.	.	.	.	.	.	.	.	.	.	.	.	.	.	.	32aa-\JJk	.
.	.	.	.	.	.	8D-\	.	8dd-/	.	8ff\	.	8D-\	.	8G\	.	8e-/	.	(8aa-^\L	.
.	.	.	.	.	.	8r	.	8r	.	8r	.	8r	.	8r	.	8r	.	16.gg\L)	.
.	.	.	.	.	.	.	.	.	.	.	.	.	.	.	.	.	.	32ff\JJk	.
.	.	.	.	.	.	8E-\	.	8cc/	.	8ee-\	.	8E-\	.	8E-\	.	8e-/	.	(8ff^\L	.
.	.	.	.	.	.	8r	.	8r	.	8r	.	8r	.	8r	.	8r	.	16.ee-\L)	.
.	.	.	.	.	.	.	.	.	.	.	.	.	.	.	.	.	.	32cc\JJk	.
.	.	.	.	.	.	8E-\	.	8b-/	.	8gg\	.	8E-\	.	8d-\	.	8d-/	.	(8ee-^\L	.
.	.	.	.	.	.	8r	.	8r	.	8r	.	8r	.	8r	.	8r	.	16.dd-\L)	.
.	.	.	.	.	.	.	.	.	.	.	.	.	.	.	.	.	.	32g\JJk	.
=23	=23	=23	=23	=23	=23	=23	=23	=23	=23	=23	=23	=23	=23	=23	=23	=23	=23	=23	=23
!	!	!	!	!LO:TX:b:t=Ver&colon;	!	!	!	!	!	!	!	!	!	!	!	!	!	!	!
1r	.	1r	.	1r	.	2E-^\	.	2cc/	.	2gg^\	.	2E-^<\	.	2d-^<\	.	4.d-/	.	4.b-\	.
.	.	.	.	.	.	.	.	.	.	.	.	.	.	.	.	16e-/LL	.	16cc\LL	.
.	.	.	.	.	.	.	.	.	.	.	.	.	.	.	.	16d-/JJ	.	16b-\JJ	.
!	!	!	!	!	!	!	!	!LO:TX:a:t=g	!	!	!	!	!	!	!	!	!	!	!
.	.	.	.	.	.	4AA-/	.	2b-/	.	4ee-\	.	4AA-/	.	4c\	.	4c/	.	4a-\	.
.	.	.	.	.	.	4r	.	.	.	4r	.	4r	.	4r	.	4r	.	4r	.
!	!	!	!	!LO:PB:g=original	!	!	!	!	!	!	!	!	!	!	!	!	!	!LO:LB:g=original	!
=24	=24	=24	=24	=24	=24	=24	=24	=24	=24	=24	=24	=24	=24	=24	=24	=24	=24	=24	=24
!	!	!	!	!	!	!	!	!	!	!	!	!	!	!	!	!	!	!	!LO:DY:b:t=p.
2AA-/	A-	2C/	A-	2A-\	A-	2AA-/	.	2cc^/	.	1ee-	.	2AA-/	.	2A-\	.	2a-\	.	8r	p
.	.	.	.	.	.	.	.	.	.	.	.	.	.	.	.	.	.	(8ee-\L	.
.	.	.	.	.	.	.	.	.	.	.	.	.	.	.	.	.	.	8ff^<\	.
.	.	.	.	.	.	.	.	.	.	.	.	.	.	.	.	.	.	8ee-\J)	.
2E-\	-gnus	2G/	-gnus	2B-\	-gnus	2E-\	.	4cc/	.	.	.	2E-\	.	2B-\	.	2b-\	.	8r	.
.	.	.	.	.	.	.	.	.	.	.	.	.	.	.	.	.	.	(8ee-\L	.
.	.	.	.	.	.	.	.	4r	.	.	.	.	.	.	.	.	.	8ff^<\	.
.	.	.	.	.	.	.	.	.	.	.	.	.	.	.	.	.	.	8ee-\J)	.
!LO:LB:g=original	!	!	!	!	!	!	!	!	!	!	!	!	!	!	!	!	!	!	!
=25	=25	=25	=25	=25	=25	=25	=25	=25	=25	=25	=25	=25	=25	=25	=25	=25	=25	=25	=25
(4.C\	De-	4.A-/	de-	(4.c\	De-	4.AA-/	.	4.cc/	.	4.ee-\	.	4.A-\	.	4.c\	.	4.cc\	.	8r	.
.	.	.	.	.	.	.	.	.	.	.	.	.	.	.	.	.	.	(8ee-\L	.
.	.	.	.	.	.	.	.	.	.	.	.	.	.	.	.	.	.	8ff^<\	.
8E-\)	.	8E-/	.	8B-\)	.	8AA-/	.	8cc/	.	8ee-\	.	8E-\	.	8B-\	.	8b-\	.	8ee-\J)	.
4A-\	-i	4C/	-i	4A-\	-i	4AA-/	.	4cc/	.	4ee-\	.	4AA-/	.	4A-\	.	4a-\	.	8r	.
.	.	.	.	.	.	.	.	.	.	.	.	.	.	.	.	.	.	(8ee-\L	.
4E-\	qui	4E-/	qui	4E-/	qui	4r	.	4r	.	4r	.	4r	.	4E-\	.	4e-/	.	8ff^<\	.
.	.	.	.	.	.	.	.	.	.	.	.	.	.	.	.	.	.	8ee-\J)	.
!	!	!	!	!	!	!	!	!	!	!	!	!	!	!	!	!LO:LB:g=original	!	!	!
=26	=26	=26	=26	=26	=26	=26	=26	=26	=26	=26	=26	=26	=26	=26	=26	=26	=26	=26	=26
4E-\	tol-	4G/	tol-	4B-\	tol-	4E-\	.	4b-/	.	4ee-\	.	4E-\	.	4G\	.	4b-\	.	8r	.
.	.	.	.	.	.	.	.	.	.	.	.	.	.	.	.	.	.	(8ee-\L	.
8E-\	-lis	8G/	-lis	8B-\	-lis	8E-\L	.	8b-/L	.	8ee-\L	.	8E-\L	.	8G\L	.	8b-\L	.	8ff^<\	.
8E-\	pe-	8G/	pe-	8B-\	pe-	8E-\J	.	8b-/J	.	8ee-\J	.	8E-\J	.	8G\J	.	8b-\J	.	8ee-\J)	.
4E-\	-ca-	4A-\	-ca-	4c\	-ca-	4E-\	.	4cc/	.	4ee-\	.	4E-\	.	4A-\	.	4cc\	.	8r	.
.	.	.	.	.	.	.	.	.	.	.	.	.	.	.	.	.	.	(8ee-\L	.
4E-\	-ta	4A-\	-ta	4c\	-ta	4E-\	.	4cc/	.	4ee-\	.	4E-\	.	4A-\	.	4cc\	.	8ff^<\	.
.	.	.	.	.	.	.	.	.	.	.	.	.	.	.	.	.	.	8ee-\J)	.
!	!	!	!	!	!	!LO:LB:g=original	!	!	!	!	!	!	!	!LO:LB:g=original	!	!	!	!	!
=27	=27	=27	=27	=27	=27	=27	=27	=27	=27	=27	=27	=27	=27	=27	=27	=27	=27	=27	=27
(4.E-\	mun-	(4.B-\	mun-	(4.d-\	mun-	4.E-\	.	4.b-/	.	4.ee-\	.	4.E-\	.	4.E-\	.	4.b-\	.	4.dd-\	.
8E-\)	.	8A-\)	.	8c\)	.	8E-\	.	8b-/	.	8ee-\	.	8E-\	.	8E-\	.	8a-\	.	8cc\	.
4E-\	-di	4G\	-di	4B-\	-di	4E-\	.	4b-/	.	4ee-\	.	4E-\	.	4E-\	.	4g\	.	4b-\	.
8A-\	mi-	8A-\	mi-	8c\	mi-	4r	.	4r	.	4r	.	4r	.	4r	.	8a-\L	.	8cc\L	.
8A-\	-se-	8B-\	-se-	8d-\	-se-	.	.	.	.	.	.	.	.	.	.	8b-\J	.	8dd-\J	.
!LO:LB:g=original	!	!LO:LB:g=original	!	!LO:LB:g=original	!	!	!	!	!	!LO:LB:g=original	!	!LO:LB:g=original	!	!	!	!	!	!LO:LB:g=original	!
=28	=28	=28	=28	=28	=28	=28	=28	=28	=28	=28	=28	=28	=28	=28	=28	=28	=28	=28	=28
!	!	!	!	!	!	!	!	!LO:TX:a:t=2	!	!LO:TX:a:t=2.	!	!	!	!	!	!	!	!	!
4.A-\	-re-	4.c\	-re-	4.e-\	-re-	4AA-/	.	0r	.	0r	.	[>1AA-	.	8E-\L	.	4.cc\	.	4.ee-\	.
.	.	.	.	.	.	.	.	.	.	.	.	.	.	8A-\	.	.	.	.	.
.	.	.	.	.	.	4r	.	.	.	.	.	.	.	8c\	.	.	.	.	.
8A-\	-re	8A-\	-re	8c\	-re	.	.	.	.	.	.	.	.	8e-\J	.	8a-\	.	8cc\	.
4.A-\	mi-	4.d-\	mi-	4.f\	mi-	4AA-/	.	.	.	.	.	.	.	8D-\L	.	4.dd-\	.	4.ff\	.
.	.	.	.	.	.	.	.	.	.	.	.	.	.	8F\	.	.	.	.	.
.	.	.	.	.	.	4r	.	.	.	.	.	.	.	8A-\	.	.	.	.	.
8A-\	-se-	8c\	-se-	8e-\	-se-	.	.	.	.	.	.	.	.	8d-\J	.	8cc\	.	8ee-\	.
=29	=29	=29	=29	=29	=29	=29	=29	=29	=29	=29	=29	=29	=29	=29	=29	=29	=29	=29	=29
4.E-\	-re-	4.B-\	-re-	4.d-\	-re-	4AA-/	.	.	.	.	.	1AA-_>	.	8E-\L	.	4.b-\	.	4.dd-\	.
.	.	.	.	.	.	.	.	.	.	.	.	.	.	8A-\	.	.	.	.	.
.	.	.	.	.	.	4r	.	.	.	.	.	.	.	8c\	.	.	.	.	.
8E-\	-re	8G/	-re	8B-\	-re	.	.	.	.	.	.	.	.	8e-\J	.	8g\	.	8b-\	.
4.E-\	mi-	4.c\	mi-	4.e-\	mi-	4AA-/	.	.	.	.	.	.	.	8D-\L	.	4.cc\	.	4.ee-\	.
.	.	.	.	.	.	.	.	.	.	.	.	.	.	8F\	.	.	.	.	.
.	.	.	.	.	.	4r	.	.	.	.	.	.	.	8A-\	.	.	.	.	.
8E-\	-se-	8B-\	-se-	8d-\	-se-	.	.	.	.	.	.	.	.	8d-\J	.	8b-\	.	8dd-\	.
!	!	!	!	!	!	!	!	!LO:LB:g=original	!	!	!	!	!	!	!	!	!	!	!
=30	=30	=30	=30	=30	=30	=30	=30	=30	=30	=30	=30	=30	=30	=30	=30	=30	=30	=30	=30
4A-\	-re-	4A-\	-re-	4c\	-re-	4AA-/	.	2cc/	.	2ee-\	.	4.AA-/]	.	4A-\	.	2a-\	.	8cc\L	.
.	.	.	.	.	.	.	.	.	.	.	.	.	.	.	.	.	.	8ee-\	.
(8G\L	-re	(8G\L	-re	(8B-\L	-re	4r	.	.	.	.	.	.	.	8G\L	.	.	.	8aa-\	.
8A-\J)	.	8A-\J)	.	8c\J)	.	.	.	.	.	.	.	8A-\	.	8A-\J	.	.	.	8ccc\J	.
(4G\	no-	(4B-\	no-	(4d-\	no-	4G\	.	4dd-X/	.	4ee-\	.	4G\	.	4G\	.	4dd-\	.	4bb-\	.
4A-\)	.	4A-\)	.	4c\)	.	4A-\	.	4cc/	.	4ee-\	.	4A-\	.	4A-\	.	4cc\	.	4aa-\	.
!	!	!	!	!	!	!	!	!	!	!	!	!	!	!	!	!LO:LB:g=original	!	!	!
=31	=31	=31	=31	=31	=31	=31	=31	=31	=31	=31	=31	=31	=31	=31	=31	=31	=31	=31	=31
4E-\	-bis	4G/	-bis	4B-\	-bis	4E-\	.	4b-/	.	4ee-\	.	4E-\	.	4E-\	.	4b-\	.	4gg\	.
4r	.	4r	.	4r	.	4r	.	4r	.	4r	.	4r	.	8r	.	8r	.	8r	.
.	.	.	.	.	.	.	.	.	.	.	.	.	.	8E-\	.	8e-/	.	8e-/	.
2r	.	2r	.	2r	.	2r	.	2r	.	2r	.	2r	.	8Dn\L	.	8d/L	.	8d/L	.
.	.	.	.	.	.	.	.	.	.	.	.	.	.	8E-\	.	8e-/	.	8e-/	.
.	.	.	.	.	.	.	.	.	.	.	.	.	.	8F\	.	8f/	.	8f/	.
.	.	.	.	.	.	.	.	.	.	.	.	.	.	8G\J	.	8g/J	.	8g/J	.
!LO:PB:g=original	!	!	!	!LO:LB:g=original	!	!	!	!	!	!	!	!	!	!LO:LB:g=original	!	!	!	!	!
=32	=32	=32	=32	=32	=32	=32	=32	=32	=32	=32	=32	=32	=32	=32	=32	=32	=32	=32	=32
2AA-/	A-	2C/	A-	2A-\	A-	2AA-/	.	2cc/	.	1ee-	.	2AA-/	.	2A-\	.	2a-\	.	8r	.
.	.	.	.	.	.	.	.	.	.	.	.	.	.	.	.	.	.	(8ee-\L	.
.	.	.	.	.	.	.	.	.	.	.	.	.	.	.	.	.	.	8ff^<\	.
.	.	.	.	.	.	.	.	.	.	.	.	.	.	.	.	.	.	8ee-\J)	.
2E-\	-gnus	2G/	-gnus	2B-\	-gnus	2E-\	.	2b-/	.	.	.	2E-\	.	2B-\	.	2b-\	.	8r	.
.	.	.	.	.	.	.	.	.	.	.	.	.	.	.	.	.	.	(8ee-\L	.
.	.	.	.	.	.	.	.	.	.	.	.	.	.	.	.	.	.	8ff^<\	.
.	.	.	.	.	.	.	.	.	.	.	.	.	.	.	.	.	.	8ee-\J)	.
!	!	!LO:LB:g=original	!	!	!	!LO:LB:g=original	!	!	!	!	!	!	!	!	!	!	!	!LO:LB:g=original	!
=33	=33	=33	=33	=33	=33	=33	=33	=33	=33	=33	=33	=33	=33	=33	=33	=33	=33	=33	=33
(4.C\	De-	4.A-/	De-	(4.c\	De-	4.AA-/	.	4.cc/	.	4.ee-\	.	4.A-\	.	4.c\	.	4.cc\	.	8r	.
.	.	.	.	.	.	.	.	.	.	.	.	.	.	.	.	.	.	(8ee-\L	.
.	.	.	.	.	.	.	.	.	.	.	.	.	.	.	.	.	.	8ff^<\	.
8E-\)	.	8E-/	.	8B-\)	.	8AA-/	.	8cc/	.	8ee-\	.	8E-\	.	8B-\	.	8b-\	.	8ee-\J)	.
4A-\	-i	4C/	-i	4A-\	-i	4AA-/	.	4cc/	.	4ee-\	.	4AA-/	.	4A-\	.	4a-\	.	8r	.
.	.	.	.	.	.	.	.	.	.	.	.	.	.	.	.	.	.	(8ee-\L	.
4E-\	qui	4E-/	qui	4E-/	qui	4r	.	4r	.	4r	.	4r	.	4E-\	.	4e-/	.	8ff^<\	.
.	.	.	.	.	.	.	.	.	.	.	.	.	.	.	.	.	.	8ee-\J)	.
=34	=34	=34	=34	=34	=34	=34	=34	=34	=34	=34	=34	=34	=34	=34	=34	=34	=34	=34	=34
4E-\	tol-	4G/	tol-	4B-\	tol-	4E-\	.	4b-/	.	4ee-\	.	4E-\	.	4G\	.	4b-\	.	8r	.
.	.	.	.	.	.	.	.	.	.	.	.	.	.	.	.	.	.	(8ee-\L	.
8E-\	-lis	8G/	-lis	8B-\	-lis	8E-\L	.	8b-/L	.	8ee-\L	.	8E-\L	.	8G\L	.	8b-\L	.	8ff^<\	.
8E-\	pe-	8G/	pe-	8B-\	pe-	8E-\J	.	8b-/J	.	8ee-\J	.	8E-\J	.	8G\J	.	8b-\J	.	8ee-\J)	.
4E-\	-ca-	4A-\	-ca-	4c\	-ca-	4E-\	.	4cc/	.	4ee-\	.	4E-\	.	4A-\	.	4cc\	.	8r	.
.	.	.	.	.	.	.	.	.	.	.	.	.	.	.	.	.	.	(8ee-\L	.
4E-\	-ta	4A-\	-ta	4c\	-ta	4E-\	.	4cc/	.	4ee-\	.	4E-\	.	4A-\	.	4cc\	.	8ff^<\	.
.	.	.	.	.	.	.	.	.	.	.	.	.	.	.	.	.	.	8ee-\J)	.
!	!	!	!	!	!	!	!	!	!	!	!	!LO:LB:g=original	!	!	!	!	!	!	!
=35	=35	=35	=35	=35	=35	=35	=35	=35	=35	=35	=35	=35	=35	=35	=35	=35	=35	=35	=35
(4.E-\	mun-	(4.B-\	mun-	(4.d-\	mun-	4.E-\	.	4.b-/	.	4.ee-\	.	4.E-\	.	4.E-\	.	4.b-\	.	4.dd-\	.
8E-\)	.	8A-\)	.	8c\)	.	8E-\	.	8b-/	.	8ee-\	.	8E-\	.	8E-\	.	8a-\	.	8cc\	.
4E-\	-di	4G\	-di	4B-\	-di	4E-\	.	4b-/	.	4ee-\	.	4E-\	.	4E-\	.	4g\	.	4b-\	.
8A-\	mi-	8A-\	mi-	8c\	mi-	4r	.	4r	.	4r	.	4r	.	4r	.	8a-\L	.	8cc\L	.
8A-\	-se-	8B-\	-se-	8d-\	-se-	.	.	.	.	.	.	.	.	.	.	8b-\J	.	8dd-\J	.
!LO:LB:g=original	!	!	!	!LO:LB:g=original	!	!	!	!LO:LB:g=original	!	!LO:LB:g=original	!	!	!	!	!	!LO:LB:g=original	!	!	!
=36	=36	=36	=36	=36	=36	=36	=36	=36	=36	=36	=36	=36	=36	=36	=36	=36	=36	=36	=36
!	!	!	!	!	!	!	!	!LO:TX:a:t=2.	!	!LO:TX:a:t=2	!	!	!	!	!	!	!	!	!
4.A-\	-re-	4.c\	-re-	4.e-\	-re-	4AA-/	.	0r	.	0r	.	[>1AA-	.	8E-\L	.	4.cc\	.	4.ee-\	.
.	.	.	.	.	.	.	.	.	.	.	.	.	.	8A-\	.	.	.	.	.
.	.	.	.	.	.	4r	.	.	.	.	.	.	.	8c\	.	.	.	.	.
8A-\	-re	8A-\	-re	8c\	-re	.	.	.	.	.	.	.	.	8e-\J	.	8a-\	.	8cc\	.
4.A-\	mi-	4.d-\	mi-	4.f\	mi-	4AA-/	.	.	.	.	.	.	.	8D-\L	.	4.dd-\	.	4.ff\	.
.	.	.	.	.	.	.	.	.	.	.	.	.	.	8F\	.	.	.	.	.
.	.	.	.	.	.	4r	.	.	.	.	.	.	.	8A-\	.	.	.	.	.
8A-\	-se-	8c\	-se-	8e-\	-se-	.	.	.	.	.	.	.	.	8d-\J	.	8cc\	.	8ee-\	.
!	!	!LO:LB:g=original	!	!	!	!	!	!	!	!	!	!	!	!	!	!	!	!	!
=37	=37	=37	=37	=37	=37	=37	=37	=37	=37	=37	=37	=37	=37	=37	=37	=37	=37	=37	=37
4.E-\	-re-	4.B-\	-re-	4.d-\	-re-	4AA-/	.	.	.	.	.	1AA-]	.	8E-\L	.	4.b-\	.	4.dd-\	.
.	.	.	.	.	.	.	.	.	.	.	.	.	.	8A-\	.	.	.	.	.
.	.	.	.	.	.	4r	.	.	.	.	.	.	.	8c\	.	.	.	.	.
8E-\	-re	8G\	-re	8B-\	-re	.	.	.	.	.	.	.	.	8e-\J	.	8g\	.	8b-\	.
4.E-\	mi-	4.c\	mi-	4.e-\	mi-	4AA-/	.	.	.	.	.	.	.	8D-\L	.	4.cc\	.	4.ee-\	.
.	.	.	.	.	.	.	.	.	.	.	.	.	.	8F\	.	.	.	.	.
.	.	.	.	.	.	4r	.	.	.	.	.	.	.	8A-\	.	.	.	.	.
8E-\	-se-	8B-\	-se-	8d-\	-se-	.	.	.	.	.	.	.	.	8d-\J	.	8b-\	.	8dd-\	.
!	!	!	!	!	!	!	!	!	!	!	!	!	!	!LO:LB:g=original	!	!	!	!LO:LB:g=original	!
=38	=38	=38	=38	=38	=38	=38	=38	=38	=38	=38	=38	=38	=38	=38	=38	=38	=38	=38	=38
4E-\	-re-	4A-\	-re-	4c\	-re-	4E-\	.	2cc/	.	2ee-\	.	4E-\	.	2A-\	.	2a-\	.	8cc\L	.
.	.	.	.	.	.	.	.	.	.	.	.	.	.	.	.	.	.	8ee-\	.
4E-\	-re	(8G\L	-re	(8B-\L	-re	4r	.	.	.	.	.	4E-\	.	.	.	.	.	8aa-\	.
.	.	8A-\J)	.	8c\J)	.	.	.	.	.	.	.	.	.	.	.	.	.	8ccc\J	.
(4E-\	no-	(4B-\	no-	(4d-\	no-	4E-\	.	4b-/	.	4ee-\	.	4E-\	.	4G\	.	4dd-\	.	4bb-\	.
4E-\)	.	4E-/)	.	4G\)	.	4r	.	4b-/	.	4ee-\	.	4E-\	.	4G\	.	4dd-\	.	4gg\	.
!	!	!	!	!	!	!LO:LB:g=original	!	!	!	!	!	!	!	!	!	!	!	!	!
=39	=39	=39	=39	=39	=39	=39	=39	=39	=39	=39	=39	=39	=39	=39	=39	=39	=39	=39	=39
4AA-/	-bis	4C/	-bis	4A-\	-bis	4AA-/	.	4cc/	.	4ee-\	.	4AA-/	.	4A-\	.	4cc\	.	4aa-\	.
4r	.	4r	.	4r	.	4r	.	4r	.	4r	.	4r	.	8r	.	4r	.	8r	.
.	.	.	.	.	.	.	.	.	.	.	.	.	.	8e-\	.	.	.	8ee-\	.
2r	.	2r	.	2r	.	2r	.	2r	.	2r	.	2r	.	8d-\L	.	2r	.	8dd-\L	.
.	.	.	.	.	.	.	.	.	.	.	.	.	.	8c\	.	.	.	8cc\	.
.	.	.	.	.	.	.	.	.	.	.	.	.	.	8B-\	.	.	.	8b-\	.
.	.	.	.	.	.	.	.	.	.	.	.	.	.	8A-\J	.	.	.	8a-\J	.
!LO:LB:g=original	!	!	!	!LO:LB:g=original	!	!	!	!	!	!	!	!	!	!	!	!	!	!	!
=40	=40	=40	=40	=40	=40	=40	=40	=40	=40	=40	=40	=40	=40	=40	=40	=40	=40	=40	=40
4E-\	mi-	4D-/	mi-	4G\	mi-	1E-	.	1dd-X	.	1gg	.	1E-	.	4d-\	.	4g\	.	1ee-T	.
4E-\	-se-	4D-/	-se-	4A-\	-se-	.	.	.	.	.	.	.	.	4c\	.	4a-\	.	.	.
(4E-\	-re-	4D-/	-re-	(4B-\	-re-	.	.	.	.	.	.	.	.	4B-\	.	4b-\	.	.	.
4E-\)	.	4D-/	.	4c\)	.	.	.	.	.	.	.	.	.	4d-\	.	4cc\	.	.	.
=41	=41	=41	=41	=41	=41	=41	=41	=41	=41	=41	=41	=41	=41	=41	=41	=41	=41	=41	=41
4AA-/	-re	4C/	-re	4A-\	-re	4AA-/	.	4cc/	.	4ee-\	.	4A-\	.	4c\	.	4a-\	.	4.cc\	.
4r	.	4r	.	4r	.	4r	.	4r	.	4r	.	4r	.	8r	.	4r	.	.	.
.	.	.	.	.	.	.	.	.	.	.	.	.	.	8e-\	.	.	.	8ee-\	.
2r	.	2r	.	2r	.	2r	.	2r	.	2r	.	2r	.	8d-\L	.	2r	.	8dd-\L	.
.	.	.	.	.	.	.	.	.	.	.	.	.	.	8c\	.	.	.	8cc\	.
.	.	.	.	.	.	.	.	.	.	.	.	.	.	8B-\	.	.	.	8b-\	.
.	.	.	.	.	.	.	.	.	.	.	.	.	.	8A-\J	.	.	.	8a-\J	.
!	!	!LO:LB:g=original	!	!	!	!	!	!	!	!	!	!	!	!	!	!LO:LB:g=original	!	!	!
=42	=42	=42	=42	=42	=42	=42	=42	=42	=42	=42	=42	=42	=42	=42	=42	=42	=42	=42	=42
4E-\	no-	4D-/	no-	(4G\	no-	1E-	.	1b-	.	1dd-X	.	1E-	.	4G\	.	4d-/	.	1g	.
4E-\	-bis	4D-/	-bis	4A-\	.	.	.	.	.	.	.	.	.	4A-\	.	4c/	.	.	.
(4E-\	no-	4D-/	no-	4B-\	.	.	.	.	.	.	.	.	.	4B-\	.	4B-/	.	.	.
4E-\)	.	4D-/	.	4G\)	.	.	.	.	.	.	.	.	.	4G\	.	4d-/	.	.	.
!	!	!	!	!	!	!	!	!	!	!	!	!LO:LB:g=original	!	!	!	!	!	!	!
=43	=43	=43	=43	=43	=43	=43	=43	=43	=43	=43	=43	=43	=43	=43	=43	=43	=43	=43	=43
4AA-/	-bis	4C/	-bis	4A-\	-bis	4AA-/	.	4cc/	.	4ee-\	.	4AA-/	.	4A-\	.	4c/	.	4a-\	.
4r	.	4r	.	4r	.	4r	.	4r	.	4r	.	4r	.	4r	.	4r	.	4r	.
2r	.	2r	.	2r	.	4AA-/	.	4cc/	.	4ee-\	.	4AA-/	.	4A-\	.	4c/	.	4a-\	.
.	.	.	.	.	.	4AA-/	.	4cc/	.	4ee-\	.	4AA-/	.	4A-\	.	4c/	.	4a-\	.
=44	=44	=44	=44	=44	=44	=44	=44	=44	=44	=44	=44	=44	=44	=44	=44	=44	=44	=44	=44
!	!	!LO:TX:a:t=P:problem=brak taktu 45	!	!	!	!	!	!	!	!	!	!	!	!	!	!	!	!	!
!	!	!LO:TX:a:t=2	!	!LO:TX:a:t=1	!	!	!	!	!	!	!	!	!	!	!	!	!	!	!
1r;	.	1r;	.	1r;	.	1AA-;	.	1cc;	.	1ee-;	.	1AA-;	.	1A-;	.	1c;	.	1a-;	.
==;;	==	==;;	==	==;;	==	==;;	==	==;;	==	==;;	==	==;;	==	==;;	==	==;;	==	==;;	==
*-	*-	*-	*-	*-	*-	*-	*-	*-	*-	*-	*-	*-	*-	*-	*-	*-	*-	*-	*-
!!!system-decoration: [(g1)][(g2)][(g3)]
!!!RDF**kern: >= above
!!!RDF**kern: <= below
!!!ENC: Anna Matuszewska
!!!END: 2020-12-28
!!!ENC: Berenika Jozajtis
!!!END: 2020-07-13
!!!YEC: Copyright 2022 Narodowy Instytut Fryderyka Chopina (https://polishscores.org)
!!!YEM: License CC-BY-4.0 (https://creativecommons.org/licenses/by/4.0)
